X: 321
T: Oh! Hag you have killed me
C: anon.
O: Ireland
B: Francis O'Neill: "The Dance Music of Ireland" (1907) no. 321
R: Double jig
Z: Transcribed by Frank Nordberg - http://www.musicaviva.com
F: http://www.musicaviva.com/abc/tunes/ireland/oneill-1001/oneill-1001-032
1.abc
M: 6/8
L: 1/8
K: D
D2d cAG|F3 GEA|DGE EFD|AGE EFD|D2d cAc|dcA GEA|(D{F}ED) (D{F}ED)|(D{F}ED)
 (D{F}ED):|
|:ABA GAG|FDF GEA|DGE EFD|AGE EFD|(A/B/c).A dAG|FDF GEA|(D{F}ED) (D{F}ED)
|(D{F}ED) (D{F}ED):|
W:
W:
W: From Musica Viva - http://www.musicaviva.com
W: the Internet center for free sheet music downloads.


